src/assets/emoji/noto-emoji/1FA91.svg

<svg enable-background="new 0 0 128 128" viewBox="0 0 128 128" xmlns="http://www.w3.org/2000/svg"><polygon points="72.06 106.21 69.01 103.26 69.01 56.43 72.06 56.27" fill="#3F2923"/><polygon points="54.25 124.02 50.59 120.47 50.59 73.64 54.25 74.08" fill="#3F2923"/><polygon points="34.87 106.21 31.83 103.26 31.84 8.65 34.88 5.98" fill="#3F2923"/><polygon points="72.66 5.98 69 9.53 69 52.88 72.66 52.44" fill="#3F2923"/><rect x="37.58" y="20.32" width="36.83" height="2.6" fill="#3F2923"/><rect x="37.58" y="34.61" width="36.83" height="2.6" fill="#3F2923"/><g opacity=".2"><path d="m73.42 14.59v37.45l-3.42-0.12v-15.71h-31.42v-2.77h31.42v-11.52h-31.42v-7.32h34.84m1-1.01h-36.84v9.32h31.42v9.52h-31.42v4.77h31.42v15.68l5.41 0.2v-39.49h0.01z" fill="#212121"/></g><linearGradient id="f" x1="55.702" x2="55.702" y1="5.9768" y2="106.21" gradientUnits="userSpaceOnUse"><stop stop-color="#D19966" offset="0"/><stop stop-color="#C99262" offset=".0278"/><stop stop-color="#A2734E" offset=".1699"/><stop stop-color="#936747" offset=".2442"/><stop stop-color="#8D6344" offset=".7751"/><stop stop-color="#664731" offset="1"/></linearGradient><path d="m72.07 5.98h-32.73-4.48v100.23h4.48v-71.56h32.73v71.55h4.48v-100.22h-4.48zm-32.73 22.56v-8.22h32.73v8.22h-32.73z" fill="url(#f)"/><g opacity=".2"><path d="m75.55 63.39v41.81h-3.08l-2.45-2.37v-39.44h5.53m1-1h-7.53v40.87l3.05 2.94 0.01-0.11v0.11h4.48v-43.81h-0.01z" fill="#212121"/></g><linearGradient id="e" x1="56.45" x2="56.45" y1="132.51" y2="82.475" gradientUnits="userSpaceOnUse"><stop stop-color="#D19966" offset="0"/><stop stop-color="#C99262" offset=".0278"/><stop stop-color="#A2734E" offset=".1699"/><stop stop-color="#936747" offset=".2442"/><stop stop-color="#664731" offset="1"/></linearGradient><rect x="54.21" y="74.08" width="4.48" height="49.94" fill="url(#e)"/><linearGradient id="d" x1="97.244" x2="97.244" y1="132.51" y2="82.475" gradientUnits="userSpaceOnUse"><stop stop-color="#D19966" offset="0"/><stop stop-color="#C99262" offset=".0278"/><stop stop-color="#A2734E" offset=".1699"/><stop stop-color="#936747" offset=".2442"/><stop stop-color="#664731" offset="1"/></linearGradient><rect x="95" y="74.08" width="4.48" height="49.94" fill="url(#d)"/><polygon points="95.04 124.02 91.38 120.47 91.38 73.64 95.04 74.08" fill="#3F2923"/><polygon points="33.4 53.08 33.4 63.11 54.17 81.03 54.55 71.84" fill="#3F2923"/><rect x="54.25" y="71.73" width="45.24" height="9.3" fill="#664731"/><g opacity=".2"><path d="m75.55 6.98v65.75h22.94v50.28h-3.07l-3.03-2.97 0.12-39.02v-1h-34.82v42.99h-3.04l-3.07-2.98v-42.55l-0.35-0.3-11.25-9.71-1.65-1.43v39.16h-3.08l-2.44-2.37v-93.69l2.41-2.16h4.1 32.73 3.5m-37.21 22.56h34.73v-10.22h-34.73v10.22m15.7 43.19h16.3v-15.35l1.78-0.1 0.95-0.05v-23.58h-34.73v25.15l0.34 0.3 15.08 13.38 0.28 0.25m22.51-66.75h-41.69l-3.03 2.72v94.57l3.03 2.94h4.48v-37.98l11.25 9.71v42.53l3.62 3.52v0.04h4.48v-43h32.81l-0.12 39.44 3.62 3.56h4.48v-52.29h-22.93v-65.76zm-37.21 22.56v-8.22h32.73v8.22h-32.73zm15.08 43.19-15.08-13.38v-23.7h32.73v21.63l-2.73 0.15v15.3h-14.92z" fill="#212121"/></g><linearGradient id="c" x1="38.833" x2="38.833" y1="-3.5634" y2="38.854" gradientUnits="userSpaceOnUse"><stop stop-color="#D19966" offset="0"/><stop stop-color="#C99262" offset=".0278"/><stop stop-color="#A2734E" offset=".1699"/><stop stop-color="#936747" offset=".2442"/><stop stop-color="#8D6344" offset=".7751"/><stop stop-color="#664731" offset="1"/></linearGradient><rect x="38.34" y="6.87" width=".98" height="45.55" fill="url(#c)"/><linearGradient id="b" x1="72.576" x2="72.576" y1="-3.5634" y2="38.854" gradientUnits="userSpaceOnUse"><stop stop-color="#D19966" offset="0"/><stop stop-color="#C99262" offset=".0278"/><stop stop-color="#A2734E" offset=".1699"/><stop stop-color="#936747" offset=".2442"/><stop stop-color="#8D6344" offset=".7751"/><stop stop-color="#664731" offset="1"/></linearGradient><rect x="72.09" y="6.87" width=".98" height="45.55" fill="url(#b)"/><polygon points="100.17 74.56 56.34 74.56 34.86 56.59 34.86 52.42 78.45 55.93 100.17 70.57" fill="#936747"/><polygon points="56.34 74.56 34.86 56.59 34.86 52.42 78.45 55.93 56.56 70.57" fill="#664731"/><g opacity=".2"><path d="m35.86 53.5 42.25 3.4 21.07 14.2v2.45h-42.48l-20.84-17.43v-2.62m-1-1.08v4.17l21.48 17.97h43.84v-3.99l-21.73-14.64-43.59-3.51z" fill="#212121"/></g><linearGradient id="a" x1="67.577" x2="67.577" y1="68.482" y2="49.556" gradientUnits="userSpaceOnUse"><stop stop-color="#D19966" offset="0"/><stop stop-color="#936747" offset="1"/></linearGradient><polygon points="100.17 70.57 56.57 70.57 34.98 52.42 76.68 52.42" fill="url(#a)"/><g opacity=".2"><path d="m76.34 53.42 20.91 16.15h-40.31l-19.22-16.15h38.62m0.34-1h-41.7l21.59 18.15h43.6l-23.49-18.15z" fill="#212121"/></g></svg>

<?xml version="1.0" encoding="utf-8"?>
<!-- Generator: Adobe Illustrator 24.0.3, SVG Export Plug-In . SVG Version: 6.00 Build 0)  -->
<svg version="1.1" id="Layer_1" xmlns="http://www.w3.org/2000/svg" xmlns:xlink="http://www.w3.org/1999/xlink" x="0px" y="0px"
	 viewBox="0 0 128 128" style="enable-background:new 0 0 128 128;" xml:space="preserve">
<polygon style="fill:#553A30;" points="72.06,106.21 69.01,103.26 69.01,56.43 72.06,56.27 "/>
<polygon style="fill:#553A30;" points="54.25,124.02 50.59,120.47 50.59,73.64 54.25,74.08 "/>
<polygon style="fill:#553A30;" points="34.87,106.21 31.83,103.26 31.84,8.65 34.88,5.98 "/>
<polygon style="fill:#553A30;" points="72.66,5.98 69,9.53 69,52.88 72.66,52.44 "/>
<rect x="37.58" y="20.32" style="fill:#553A30;" width="36.83" height="2.6"/>
<rect x="37.58" y="34.61" style="fill:#553A30;" width="36.83" height="2.6"/>
<g style="opacity:0.2;">
	<path style="fill:#212121;" d="M73.42,14.59v37.45L70,51.92V36.21H38.58v-2.77H70V21.92H38.58V14.6h34.84 M74.42,13.59H37.58v9.32
		H69v9.52H37.58v4.77H69v15.68l5.41,0.2L74.42,13.59C74.41,13.59,74.42,13.59,74.42,13.59z"/>
</g>
<linearGradient id="SVGID_1_" gradientUnits="userSpaceOnUse" x1="55.705" y1="122.02" x2="55.705" y2="21.79" gradientTransform="matrix(1 0 0 -1 0 128)">
	<stop  offset="0" style="stop-color:#D19966"/>
	<stop  offset="0.0278" style="stop-color:#C99262"/>
	<stop  offset="0.1699" style="stop-color:#A2734E"/>
	<stop  offset="0.2442" style="stop-color:#936747"/>
	<stop  offset="0.7751" style="stop-color:#8D6344"/>
	<stop  offset="1" style="stop-color:#664731"/>
</linearGradient>
<path style="fill:url(#SVGID_1_);" d="M72.07,5.98H39.34h-4.48v100.23h4.48V34.65h32.73v71.55h4.48V5.98L72.07,5.98L72.07,5.98z
	 M39.34,28.54v-8.22h32.73v8.22L39.34,28.54z"/>
<linearGradient id="SVGID_2_" gradientUnits="userSpaceOnUse" x1="56.45" y1="-4.51" x2="56.45" y2="45.525" gradientTransform="matrix(1 0 0 -1 0 128)">
	<stop  offset="0" style="stop-color:#D19966"/>
	<stop  offset="0.0278" style="stop-color:#C99262"/>
	<stop  offset="0.1699" style="stop-color:#A2734E"/>
	<stop  offset="0.2442" style="stop-color:#936747"/>
	<stop  offset="1" style="stop-color:#664731"/>
</linearGradient>
<rect x="54.21" y="74.08" style="fill:url(#SVGID_2_);" width="4.48" height="49.94"/>
<linearGradient id="SVGID_3_" gradientUnits="userSpaceOnUse" x1="97.24" y1="-4.51" x2="97.24" y2="45.525" gradientTransform="matrix(1 0 0 -1 0 128)">
	<stop  offset="0" style="stop-color:#D19966"/>
	<stop  offset="0.0278" style="stop-color:#C99262"/>
	<stop  offset="0.1699" style="stop-color:#A2734E"/>
	<stop  offset="0.2442" style="stop-color:#936747"/>
	<stop  offset="1" style="stop-color:#664731"/>
</linearGradient>
<rect x="95" y="74.08" style="fill:url(#SVGID_3_);" width="4.48" height="49.94"/>
<polygon style="fill:#553A30;" points="95.04,124.02 91.38,120.47 91.38,73.64 95.04,74.08 "/>
<polygon style="fill:#553A30;" points="33.4,53.08 33.4,63.11 54.17,81.03 54.55,71.84 "/>
<rect x="54.25" y="71.73" style="fill:#664731;" width="45.24" height="9.3"/>
<polygon style="fill:#936747;" points="100.17,74.56 56.34,74.56 34.86,56.59 34.86,52.42 78.45,55.93 100.17,70.57 "/>
<polygon style="fill:#664731;" points="56.34,74.56 34.86,56.59 34.86,52.42 78.45,55.93 56.56,70.57 "/>
<linearGradient id="SVGID_4_" gradientUnits="userSpaceOnUse" x1="67.575" y1="59.518" x2="67.575" y2="78.444" gradientTransform="matrix(1 0 0 -1 0 128)">
	<stop  offset="0" style="stop-color:#D19966"/>
	<stop  offset="1" style="stop-color:#936747"/>
</linearGradient>
<polygon style="fill:url(#SVGID_4_);" points="100.17,70.57 56.57,70.57 34.98,52.42 76.68,52.42 "/>
</svg>
